X: 1
T: Donald McLennan's Exercise
M: 9/8
L: 1/8
R: slip jig
K: Edor
&quot;Bm&quot;Bff &quot;D&quot;f/2g/4f/4ef&quot;Bm&quot;fBB|&quot;D&quot;dff&quot;A&quot;^cee &quot;A&quot;ecA|
&quot;Bm&quot;Bff &quot;D&quot;f/2g/4f/4ef&quot;Bm&quot;fBB|&quot;Em&quot;gee&quot;D&quot;fdd &quot;A&quot;e^cA:|
&quot;D&quot;dff &quot;D&quot;afa&quot;D&quot;aff|&quot;D&quot;dff&quot;D&quot;afd &quot;A&quot;^cee|
&quot;D&quot;dff &quot;D&quot;a2f&quot;D&quot;aff|&quot;Em&quot;gfe&quot;D&quot;fed &quot;A&quot;^cee:|
&quot;D&quot;dag &quot;D&quot;fag&quot;Bm&quot;fB^c|&quot;D&quot;dag&quot;D&quot;fdf &quot;A&quot;eA^c|
&quot;D&quot;dag &quot;D&quot;fag&quot;Bm&quot;fB^c|&quot;D&quot;dad&quot;F#m&quot;^caf &quot;A&quot;eA^c:|
&quot;D&quot;dfe &quot;A&quot;efe&quot;Bm&quot;fB^c|&quot;D&quot;dfd&quot;F#m&quot;^caf &quot;A&quot;eA^c|
&quot;D&quot;dfe &quot;A&quot;efe&quot;Bm&quot;fB^c|&quot;D&quot;dad&quot;F#m&quot;^caf &quot;A&quot;eA^c:|
&quot;D&quot;dfa &quot;D&quot;fda&quot;D&quot;f/2g/4f/4ef|&quot;D&quot;dfa&quot;D&quot;fda &quot;D&quot;f2e|
&quot;D&quot;dfa &quot;D&quot;fda&quot;D&quot;f/2g/4f/4ef|&quot;Em&quot;geg&quot;D&quot;fdf &quot;A&quot;e/2f/2e2:|
&quot;D&quot;dfd &quot;A&quot;ede&quot;D&quot;~f3|&quot;D&quot;dfd&quot;D&quot;edf &quot;A&quot;e3|
&quot;D&quot;dfd &quot;A&quot;ede&quot;D&quot;fef|&quot;Em&quot;geg&quot;D&quot;fdf &quot;A&quot;e/2f/2e2:|
